X:100
T:Humours of Drinagh, The
R:jig
H:Related to reel #697
D:Stockton's Wing
D:Noel Hill & Tony McMahon: \'I gCnoc na Gra\'i
Z:id:hn-jig-100
M:6/8
K:D
FDF ABc|dfd ecA|FDF ABc|dAF ~G3|
FDF ABc|dfd ecA|~f3 gec|1 edc dAG:|2 edc d2e||
|:~f3 ~g3|agf gfe|~f3 ~g3|agf g2e|
agf gfe|fed ecA|~f3 gec|1 edc d2e:|2 edc dAG||
